public/assets/images/building.svg

<svg width="162" height="164" viewBox="0 0 162 164" fill="none" xmlns="http://www.w3.org/2000/svg">
<path d="M0 187.5V41.6667H35.8166V0H125.358V83.3333H161.175V187.5H89.5415V145.833H71.6332V187.5H0ZM17.9083 166.667H35.8166V145.833H17.9083V166.667ZM17.9083 125H35.8166V104.167H17.9083V125ZM17.9083 83.3333H35.8166V62.5H17.9083V83.3333ZM53.7249 125H71.6332V104.167H53.7249V125ZM53.7249 83.3333H71.6332V62.5H53.7249V83.3333ZM53.7249 41.6667H71.6332V20.8333H53.7249V41.6667ZM89.5415 125H107.45V104.167H89.5415V125ZM89.5415 83.3333H107.45V62.5H89.5415V83.3333ZM89.5415 41.6667H107.45V20.8333H89.5415V41.6667ZM125.358 166.667H143.266V145.833H125.358V166.667ZM125.358 125H143.266V104.167H125.358V125Z" fill="#3B3C33"/>
</svg>

<svg xmlns="http://www.w3.org/2000/svg" width="162" height="164" fill="none" viewBox="0 0 162 164"><path fill="#3b3c33" d="M0 187.5V41.667h35.817V0h89.541v83.333h35.817V187.5H89.541v-41.667H71.634V187.5zm17.908-20.833h17.909v-20.834H17.908zm0-41.667h17.909v-20.833H17.908zm0-41.667h17.909V62.5H17.908zM53.725 125h17.908v-20.833H53.725zm0-41.667h17.908V62.5H53.725zm0-41.666h17.908V20.833H53.725zM89.542 125h17.908v-20.833H89.541zm0-41.667h17.908V62.5H89.541zm0-41.666h17.908V20.833H89.541zm35.816 125h17.908v-20.834h-17.908zm0-41.667h17.908v-20.833h-17.908z"/></svg>
